svg/bow_arrow.svg

<svg xmlns="http://www.w3.org/2000/svg" viewBox="0 0 24 24"><path d="M19.03 6.03 20 7l2-5-5 2 .97.97-1.82 1.82C10.87 2.16 3.3 3.94 2.97 4L2 4.26l.5 1.94.79-.2 6.83 6.82L6.94 16H5l-3 3 2 1 1 2 3-3v-1.94l3.18-3.18L18 20.71l-.19.79 1.93.5.26-.97c.06-.33 1.84-7.9-2.79-13.18zM4.5 5.78c2.05-.28 6.78-.5 10.23 2.43l-3.91 3.91zM18.22 19.5l-6.34-6.32 3.91-3.91c2.93 3.45 2.71 8.18 2.43 10.23"/></svg>

<svg xmlns="http://www.w3.org/2000/svg" id="mdi-bow-arrow" viewBox="0 0 24 24"><path d="M19.03 6.03L20 7L22 2L17 4L17.97 4.97L16.15 6.79C10.87 2.16 3.3 3.94 2.97 4L2 4.26L2.5 6.2L3.29 6L10.12 12.82L6.94 16H5L2 19L4 20L5 22L8 19V17.06L11.18 13.88L18 20.71L17.81 21.5L19.74 22L20 21.03C20.06 20.7 21.84 13.13 17.21 7.85L19.03 6.03M4.5 5.78C6.55 5.5 11.28 5.28 14.73 8.21L10.82 12.12L4.5 5.78M18.22 19.5L11.88 13.18L15.79 9.27C18.72 12.72 18.5 17.45 18.22 19.5Z" /></svg>
